.icons/oomox-ad/24x24/panel/gpm-monitor.svg

<svg xmlns="http://www.w3.org/2000/svg" width="24" height="24" version="1.1">
 <defs>
  <style id="current-color-scheme" type="text/css">
   .ColorScheme-Text { color:#7ba5b5; } .ColorScheme-Highlight { color:#4285f4; }
  </style>
 </defs>
 <path style="fill:currentColor" class="ColorScheme-Text" d="m 12.779306,6.0015312 c -0.05156,-0.00555 -0.102813,0.00986 -0.142578,0.044922 -0.03976,0.03509 -0.06339,0.085636 -0.06836,0.140625 l -0.226562,2.4863281 c -0.01035,0.1144062 0.06903,0.2174449 0.175781,0.2285156 0.618358,0.06421 1.21365,0.2429922 1.771484,0.5312502 0.02654,0.01373 0.057,0.01953 0.08594,0.01953 0.02159,0 0.04169,-0.004 0.0625,-0.01172 0.0486,-0.01819 0.08897,-0.05575 0.111328,-0.105469 l 1.011719,-2.25 c 0.04662,-0.1035318 0.0068,-0.2274557 -0.08984,-0.2773438 C 14.623385,6.3703901 13.717353,6.0990091 12.779306,6.0015312 Z m -1.863281,0.037109 C 9.9824748,6.174375 9.0877968,6.4835413 8.2558688,6.956609 c -0.09472,0.053868 -0.130275,0.1796522 -0.08008,0.2812501 l 1.091797,2.207031 c 0.03488,0.07049 0.102305,0.109375 0.171875,0.109375 0.03069,0 0.06088,-0.007 0.08984,-0.02344 0.5480302,-0.311576 1.1372282,-0.51411 1.7519522,-0.6035159 0.106248,-0.015443 0.180421,-0.1204452 0.166016,-0.234375 l -0.3125,-2.4765626 C 11.120358,6.1024729 11.022007,6.0233095 10.916019,6.0386402 Z m 5.986328,1.7968751 c -0.05122,0.00569 -0.09839,0.033347 -0.13086,0.076172 L 15.30079,9.8491871 c -0.03247,0.04285 -0.04632,0.09744 -0.04101,0.1523439 0.0053,0.0549 0.03034,0.105759 0.07031,0.140625 0.48288,0.420938 0.888336,0.922558 1.207031,1.494141 0.03639,0.06519 0.101877,0.101562 0.167969,0.101562 0.03391,0 0.06842,-0.0093 0.09961,-0.0293 l 2,-1.28125 c 0.04416,-0.02834 0.07529,-0.07339 0.08789,-0.126953 0.01255,-0.05356 0.005,-0.110781 -0.02148,-0.158203 -0.481887,-0.8642129 -1.096363,-1.6254218 -1.826172,-2.2617188 -0.03997,-0.03481 -0.09115,-0.050443 -0.142578,-0.044922 z M 6.8613368,8.0425466 c -0.05163,-0.00353 -0.101958,0.014346 -0.140625,0.050781 -0.706855,0.6660896 -1.293758,1.4508255 -1.74414,2.3339844 -0.02468,0.04846 -0.03011,0.107213 -0.01563,0.160156 0.01448,0.05297 0.04659,0.09659 0.0918,0.123047 l 2.044921,1.199219 c 0.02957,0.01735 0.06225,0.02539 0.09375,0.02539 0.06868,0 0.134654,-0.0402 0.169922,-0.109375 0.297676,-0.583747 0.686712,-1.102357 1.154297,-1.542969 0.03875,-0.03638 0.06118,-0.08745 0.06445,-0.142578 0.0033,-0.05507 -0.01289,-0.110892 -0.04687,-0.1523439 l -1.5390621,-1.875 c -0.03399,-0.041451 -0.08139,-0.066752 -0.1328129,-0.070312 z m 12.5312492,3.7910154 -2.224609,0.746094 c -0.102354,0.03436 -0.159006,0.152049 -0.126953,0.261719 0.159583,0.546134 0.240234,1.116414 0.240234,1.695312 0,0.08523 -0.0018,0.172015 -0.0059,0.265625 -0.0024,0.05513 0.01606,0.109611 0.05078,0.150391 0.03469,0.04081 0.08334,0.06584 0.134766,0.06836 l 2.328124,0.115234 c 0.0031,1.41e-4 0.0048,0 0.0078,0 0.103112,0 0.188497,-0.08767 0.193359,-0.199218 0.006,-0.138875 0.0098,-0.26987 0.0098,-0.400392 -5.2e-5,-0.874835 -0.123089,-1.738068 -0.365234,-2.566406 -0.0321,-0.109726 -0.139939,-0.171164 -0.242188,-0.136719 z M 8.6132898,12.073796 c -0.04224,0.0053 -0.08289,0.02534 -0.115234,0.05859 -0.06473,0.06645 -0.07931,0.171162 -0.03711,0.25586 l 1.7207032,3.457031 c -0.0063,0.06659 -0.0098,0.1353 -0.0098,0.203125 0,0.521526 0.189227,1.010155 0.533203,1.378906 0.344003,0.368779 0.800622,0.572266 1.28711,0.572266 0.486487,0 0.945086,-0.203543 1.289062,-0.572266 0.344003,-0.368751 0.533203,-0.85738 0.533203,-1.378906 0,-0.521527 -0.189226,-1.012108 -0.533203,-1.38086 -0.343514,-0.368255 -0.80138,-0.57172 -1.287109,-0.572265 h -0.002 c -0.03284,4.4e-5 -0.06707,8.4e-5 -0.09961,0.002 L 8.7382078,12.103093 c -0.0386,-0.02445 -0.08276,-0.03456 -0.125,-0.0293 z m -4.095703,0.06641 c -0.0497,-0.01441 -0.103757,-0.0079 -0.1484371,0.01953 -0.04468,0.02747 -0.07633,0.07367 -0.08984,0.126954 -0.184812,0.730664 -0.2792971,1.487385 -0.2792971,2.25 0,0.130522 0.0037,0.261517 0.0098,0.40039 0.0048,0.111575 0.0902,0.199219 0.193359,0.199218 0.003,0 0.0067,1.69e-4 0.0098,0 l 2.326172,-0.115234 c 0.05143,-0.0025 0.100125,-0.02758 0.134765,-0.06836 0.03469,-0.04078 0.05319,-0.09526 0.05078,-0.15039 -0.004,-0.09364 -0.0059,-0.180423 -0.0059,-0.265625 0,-0.505046 0.06166,-1.00446 0.183594,-1.486328 0.028,-0.11093 -0.03324,-0.22573 -0.136718,-0.255859 z"/>
</svg>

<svg xmlns="http://www.w3.org/2000/svg" width="24" height="24" version="1.1">
 <defs>
  <style id="current-color-scheme" type="text/css">
   .ColorScheme-Text { color:#7ba5b5; } .ColorScheme-Highlight { color:#4285f4; } .ColorScheme-NeutralText { color:#ff9800; } .ColorScheme-PositiveText { color:#4caf50; } .ColorScheme-NegativeText { color:#f44336; }
  </style>
 </defs>
 <path style="fill:currentColor" class="ColorScheme-Text" d="M 12.779,6.0011 C 12.728,5.9956 12.676,6.011 12.637,6.0461 12.597,6.0811 12.573,6.1317 12.568,6.1867 L 12.342,8.673 C 12.331,8.7874 12.411,8.8905 12.518,8.9015 13.136,8.9657 13.731,9.1445 14.289,9.4328 14.38,9.4853 14.488,9.4406 14.549,9.3351 L 15.561,7.0851 C 15.607,6.9816 15.567,6.8577 15.471,6.8078 14.623,6.37 13.717,6.0986 12.779,6.0011 Z M 10.916,6.0382 C 9.9825,6.174 9.0878,6.4831 8.2559,6.9562 8.1611,7.0101 8.1256,7.1359 8.1758,7.2375 L 9.2676,9.4445 C 9.3025,9.515 9.3699,9.5539 9.4395,9.5539 9.4702,9.5539 9.5003,9.5469 9.5293,9.5304 10.077,9.2188 10.667,9.0163 11.281,8.9269 11.388,8.9115 11.462,8.8065 11.447,8.6925 L 11.135,6.216 C 11.12,6.1021 11.022,6.0229 10.916,6.0382 Z M 16.902,7.8351 C 16.851,7.8408 16.804,7.8685 16.771,7.9113 L 15.301,9.8488 C 15.268,9.8916 15.254,9.9462 15.26,10.002 15.265,10.056 15.29,10.107 15.33,10.142 15.813,10.563 16.218,11.065 16.537,11.636 16.574,11.701 16.639,11.738 16.705,11.738 16.739,11.738 16.774,11.729 16.805,11.709 L 18.805,10.427 C 18.898,10.368 18.922,10.23 18.871,10.142 18.389,9.2775 17.775,8.5163 17.045,7.88 17.005,7.8452 16.954,7.8296 16.902,7.8351 Z M 6.8613,8.0421 C 6.8097,8.0386 6.7594,8.0565 6.7207,8.0929 6.0139,8.759 5.427,9.5438 4.9766,10.427 4.9519,10.476 4.9465,10.535 4.9609,10.587 4.9754,10.64 5.0075,10.684 5.0527,10.711 L 7.0977,11.91 C 7.1893,11.963 7.3022,11.928 7.3613,11.826 7.659,11.242 8.048,10.723 8.5156,10.283 8.5544,10.246 8.5768,10.195 8.5801,10.14 8.5834,10.085 8.5672,10.029 8.5332,9.9875 L 6.9941,8.1125 C 6.9602,8.071 6.9128,8.0457 6.8613,8.0421 Z M 19.393,11.834 17.168,12.58 C 17.066,12.614 17.009,12.732 17.041,12.841 17.201,13.388 17.294,13.958 17.281,14.537 L 17.275,14.802 C 17.272,14.888 17.346,15.021 17.461,15.021 L 19.797,15.136 C 19.9,15.136 19.985,15.049 19.99,14.937 19.996,14.798 20,14.537 20,14.537 20,13.662 19.877,12.799 19.635,11.97 19.603,11.861 19.495,11.799 19.393,11.834 Z M 11.893,14.097 8.7382,12.103 C 8.7382,12.103 8.6554,12.069 8.6132,12.074 8.6132,12.074 8.5304,12.099 8.4981,12.132 8.4333,12.199 8.4187,12.304 8.4609,12.388 L 10.182,15.845 C 10.182,15.845 10.172,15.981 10.172,16.048 10.172,16.57 10.361,17.059 10.705,17.427 11.049,17.796 11.506,18 11.992,18 12.479,18 12.937,17.796 13.281,17.427 13.625,17.059 13.814,16.57 13.814,16.048 13.814,15.527 13.625,15.036 13.281,14.668 12.938,14.299 12.48,14.096 11.994,14.095 Z M 4.5176,12.14 C 4.4679,12.126 4.4138,12.132 4.3691,12.16 4.3245,12.187 4.2928,12.233 4.2793,12.287 4.0945,13.017 4,13.774 4,14.537 4,14.667 4.0098,14.937 4.0098,14.937 4.0146,15.049 4.1,15.136 4.2032,15.136 L 6.5391,15.021 C 6.6374,15.017 6.7247,14.927 6.7247,14.802 6.7207,14.709 6.7188,14.537 6.7188,14.537 6.7188,14.032 6.7804,13.532 6.9024,13.05 6.9304,12.939 6.8691,12.825 6.7657,12.795 Z"/>
</svg>
